X:1
T:Selig sind, die Gottes Wort hören
T:Ludwig Hellwig
T:Selig sind, die Gottes Wort hören
T:CPDL - Creative Commons Attribution Non Commercial 3.0
C:Ludwig Hellwig
Z:CPDL - Creative Commons Attribution Non Commercial 3.0
%%score [ ( 1 2 ) ( 3 4 ) ]
L:1/8
Q:1/4=66
M:4/4
K:A
V:1 treble nm="Sopran\nAlt"
V:2 treble 
V:3 bass nm="Tenor\nBass"
V:4 bass 
V:1
!p!"^Langsam""^Das erste Mal Soli, das zweite Mal Tutti" (A3!>(! E) E4!>)! | %1
w: Se- * lig,|
!mf! (c3!>(! A) A4!>)! |!mf! B2 cB A2 GA |!<(! B2 AB!<)! !^!c4 |!>(! A2 AG!>)! F2 B2 |1 %5
w: se- * lig,|se- lig * sind, die *|Got- tes * Wort|hö- ren * und be-|
!>(! A4!>)! G2 z2 :|2!>(! G4!>)! A2 z2 ||"^Soli" z8 | (c3!>(! B) A4!>)! |!mf! fe dc B2!<(! AB!<)! | %10
w: wah- ren!|wah- ren!||Se- * lig,|se- * lig * sind, die *|
 cB AG !^!F4 |!f!!<(! d2 c2!<)! B2 A2 | (A2!>(! G2) A2!>)! z2 |!pp!"^Tutti" (G3 A) B4 | %14
w: Got- * tes * Wort|hö- ren und be-|wah- * ren!|Se- * lig,|
!p! (c3 B) A4 |!mf! fe dc B2"^cresc." AB | cB AG !^!F4 |!<(! d2 c2!<)! B2 f2 | e4!>(! A2!>)! z2 | %19
w: se- * lig,|se- * lig * sind, die *|Got- * tes * Wort|hö- ren und be-|wah- ren!|
!f! d8 |!>(! c4!>)! z4 |!p! G8 | A4 z4 |] %23
w: Se-|lig,|se-|lig!|
V:2
 (C3 E) E4 | E4 E4 | E2 D2 C2 C2 | F2 F2 ^E4 | C2 =E2 D2 F2 |1 E4 E2 x2 :|2 E4 E2 x2 || x8 | %8
 (E3 D) C4 | DE F2 GF E2 | E2 E2 F4 | F2 F2 F2 F2 | E4 E2 x2 | E4 E4 | (C3 D) E4 | DE F2 GF E2 | %16
 E2 E2 F4 | F2 F2 F2 =A2 | (A2 G2) A2 x2 | G8 | A4 x4 | D8 | C4 x4 |] %23
V:3
!p! (A,3!>(! C) C4!>)! |!mf! (E3!>(! C) C4!>)! |!mf! G,2 G,2 A,2 A,2 |!<(! F,2 F,2!<)! !^!G,4 | %4
w: ||||
!>(! A,2 A,2!>)! A,2 D2 |1!>(! C4!>)! B,2 z2 :|2!>(! (B,3 D)!>)! C2 z2 || (D3 C) B,4 | %8
w: |||Se- * lig,|
 A,4!>(! A,4!>)! |!mf! DC B,A, G,B,!<(! CD!<)! | ED CB, !^!A,4 |!f!!<(! B,2 ^A,2!<)! B,2 B,2 | %12
w: ||||
 (B,3!>(! D) C2!>)! z2 |!pp! (D3 C) B,4 |!p! (A,3 B,) C4 |!mf! DC B,A, G,B,"^cresc." CD | %16
w: ||||
 ED CB, !^!A,4 |!<(! B,2 ^A,2!<)! B,2 B,2 | (B,3!>(! D) C2!>)! z2 |!f! B,8 |!>(! C4!>)! z4 | %21
w: |||||
!p! B,8 | A,4 z4 |] %23
w: ||
V:4
 A,,4 A,,4 | A,4 A,4 | E,2 E,2 F,2 F,2 | D,2 D,2 C,4 | F,2 C,2 D,2 B,,2 |1 E,4 E,2 x2 :|2 %6
 E,4 A,,2 x2 || (B,3 A,) G,4 | z8 | D,2 D,2 E,D, C,B,, | A,,2 B,,C, D,4 | B,,2 C,2 D,2 ^D,2 | %12
 E,4 A,2 x2 | (B,3 A,) G,4 | A,4 A,4 | D,2 D,2 E,D, C,B,, | A,,2 B,,C, D,4 | B,,2 C,2 D,2 ^D,2 | %18
 E,4 A,2 x2 | E,8 | A,4 x4 | E,8 | A,,4 x4 |] %23

